src/lib/packages/icons/src/assets/line/wallet.svg

<svg xmlns="http://www.w3.org/2000/svg" width="24" height="24" fill="none"><path fill="currentColor" d="M18.75 6.297V6c0-2.418-1.332-3.75-3.75-3.75H5A2.752 2.752 0 0 0 2.25 5v13c0 2.418 1.332 3.75 3.75 3.75h12c2.418 0 3.75-1.332 3.75-3.75v-8c0-2.155-1.058-3.447-3-3.703Zm1.5 9.453H16.5c-.965 0-1.75-.785-1.75-1.75s.785-1.75 1.75-1.75h3.75v3.5ZM5 3.75h10c1.577 0 2.25.673 2.25 2.25v.25H5c-.689 0-1.25-.561-1.25-1.25S4.311 3.75 5 3.75Zm13 16.5H6c-1.577 0-2.25-.673-2.25-2.25V7.449c.375.192.8.301 1.25.301h13c1.577 0 2.25.673 2.25 2.25v.75H16.5A3.254 3.254 0 0 0 13.25 14a3.254 3.254 0 0 0 3.25 3.25h3.75V18c0 1.577-.673 2.25-2.25 2.25ZM17.01 13h.01a1 1 0 1 1 0 2 1.005 1.005 0 0 1-1.005-1c0-.552.443-1 .995-1Z"/></svg>

<svg width="24" height="24" viewBox="0 0 24 24" fill="none" xmlns="http://www.w3.org/2000/svg">
<path d="M18.75 6.297V6C18.75 3.582 17.418 2.25 15 2.25H5C3.483 2.25 2.25 3.483 2.25 5V18C2.25 20.418 3.582 21.75 6 21.75H18C20.418 21.75 21.75 20.418 21.75 18V10C21.75 7.845 20.692 6.553 18.75 6.297ZM20.25 15.75H16.5C15.535 15.75 14.75 14.965 14.75 14C14.75 13.035 15.535 12.25 16.5 12.25H20.25V15.75ZM5 3.75H15C16.577 3.75 17.25 4.423 17.25 6V6.25H5C4.311 6.25 3.75 5.689 3.75 5C3.75 4.311 4.311 3.75 5 3.75ZM18 20.25H6C4.423 20.25 3.75 19.577 3.75 18V7.44897C4.125 7.64097 4.55 7.75 5 7.75H18C19.577 7.75 20.25 8.423 20.25 10V10.75H16.5C14.708 10.75 13.25 12.208 13.25 14C13.25 15.792 14.708 17.25 16.5 17.25H20.25V18C20.25 19.577 19.577 20.25 18 20.25ZM17.01 13H17.02C17.573 13 18.02 13.448 18.02 14C18.02 14.552 17.573 15 17.02 15C16.468 15 16.015 14.552 16.015 14C16.015 13.448 16.458 13 17.01 13Z" fill="currentColor"/>
</svg>
